apps/penxle.com/src/assets/icons/lock.svg

<svg fill="currentColor" viewBox="0 0 10 11" xmlns="http://www.w3.org/2000/svg">
  <path
    d="M4.375 7C4.375 6.65482 4.65482 6.375 5 6.375C5.34518 6.375 5.625 6.65482 5.625 7C5.625 7.34518 5.34518 7.625 5 7.625C4.65482 7.625 4.375 7.34518 4.375 7Z"
  />
  <path
    fill-rule="evenodd"
    clip-rule="evenodd"
    d="M5 0.125C3.41218 0.125 2.125 1.41218 2.125 3V3.55686C2.125 3.59026 2.12937 3.62264 2.13756 3.65347C1.41951 3.91731 0.859832 4.49659 0.622359 5.22746C0.5 5.60404 0.5 6.06936 0.5 7C0.5 7.93064 0.5 8.39596 0.622359 8.77254C0.869653 9.53364 1.46636 10.1303 2.22746 10.3776C2.60404 10.5 3.06936 10.5 3.99999 10.5H6C6.93063 10.5 7.39596 10.5 7.77254 10.3776C8.53364 10.1303 9.13035 9.53364 9.37764 8.77254C9.5 8.39596 9.5 7.93064 9.5 7C9.5 6.06936 9.5 5.60404 9.37764 5.22746C9.14017 4.49659 8.58049 3.91731 7.86244 3.65347C7.87063 3.62264 7.875 3.59026 7.875 3.55686V3C7.875 1.41218 6.58782 0.125 5 0.125ZM6 3.5C6.48264 3.5 6.84013 3.5 7.125 3.51707V3C7.125 1.8264 6.1736 0.875 5 0.875C3.8264 0.875 2.875 1.8264 2.875 3V3.51707C3.15987 3.5 3.51736 3.5 4 3.5H6ZM3.625 7C3.625 6.24061 4.24061 5.625 5 5.625C5.75939 5.625 6.375 6.24061 6.375 7C6.375 7.75939 5.75939 8.375 5 8.375C4.24061 8.375 3.625 7.75939 3.625 7Z"
  />
</svg>

<svg xmlns="http://www.w3.org/2000/svg" fill="currentColor" viewBox="0 0 10 11">
  <path d="M4.375 7a.625.625 0 1 1 1.25 0 .625.625 0 0 1-1.25 0Z" />
  <path
    fill-rule="evenodd"
    d="M5 .125A2.875 2.875 0 0 0 2.125 3v.557c0 .033.004.066.013.096A2.5 2.5 0 0 0 .622 5.227C.5 5.604.5 6.07.5 7c0 .93 0 1.396.122 1.773a2.5 2.5 0 0 0 1.605 1.605c.377.122.842.122 1.773.122h2c.93 0 1.396 0 1.773-.122a2.5 2.5 0 0 0 1.605-1.605C9.5 8.396 9.5 7.93 9.5 7c0-.93 0-1.396-.122-1.773a2.5 2.5 0 0 0-1.516-1.574.376.376 0 0 0 .013-.096V3A2.875 2.875 0 0 0 5 .125ZM6 3.5c.483 0 .84 0 1.125.017V3a2.125 2.125 0 0 0-4.25 0v.517C3.16 3.5 3.517 3.5 4 3.5h2ZM3.625 7a1.375 1.375 0 1 1 2.75 0 1.375 1.375 0 0 1-2.75 0Z"
    clip-rule="evenodd"
  />
</svg>
